64x64/apps/GMail-mail.google.com.svg

<svg xmlns="http://www.w3.org/2000/svg" width="64" height="64" version="1.1">
 <path style="opacity:0.2" d="M 4.0004312,18.62561 V 50.18366 C 4.0004312,52.292653 5.6129638,54 7.6019315,54 H 16.000224 V 30.078537 L 6.5550747,23.039596 C 4.8620518,21.7902 4.1108005,20.212293 4.0199621,18.641235 Z m 55.9990338,0 -0.0196,0.01562 c -0.09084,1.571057 -0.84209,3.148964 -2.535113,4.398362 l -9.445081,7.038945 V 54 h 8.398293 c 1.988968,0 3.6015,-1.707347 3.6015,-3.81634 z"/>
 <path style="fill:#34a853" d="m 59.999465,17.625645 -0.0196,0.01562 c -0.09084,1.571059 -0.84209,3.148965 -2.535113,4.398363 l -9.445081,7.038944 v 23.921464 h 8.398293 c 1.988968,0 3.6015,-1.707347 3.6015,-3.816341 z"/>
 <path style="fill:#4285f4" d="m 4.0004312,17.625645 0.0196,0.01562 c 0.090838,1.571059 0.8420895,3.148965 2.5351122,4.398363 l 9.4450806,7.038944 V 53.000035 H 7.6019311 c -1.9889677,0 -3.6014999,-1.707347 -3.6014999,-3.816341 z"/>
 <path style="opacity:0.2" d="M 10.262042,12.004631 C 5.1802527,11.787033 1.1852035,19.076803 6.5550747,23.039596 l 9.4451493,7.038941 15.999724,11.92167 15.999724,-11.92167 9.445149,-7.038941 c 5.369872,-3.962793 1.375283,-11.252492 -3.706966,-11.034965 -1.172828,0.0502 -2.402706,0.501616 -3.589782,1.484349 L 47.999672,15.059266 31.999948,26.742658 16.000224,15.059266 13.851824,13.48898 c -1.187075,-0.982733 -2.417061,-1.434134 -3.589782,-1.484349 z"/>
 <path style="fill:#ea4335" d="M 16.000224,14.0593 V 29.078571 L 31.999948,41.000242 47.999672,29.078571 V 14.0593 L 31.999948,25.742693 Z"/>
 <path style="fill:#c5221f" d="M 10.262042,11.004665 C 5.1802527,10.787067 1.1852036,18.076837 6.5550747,22.039631 l 9.4451493,7.03894 V 14.0593 l -2.1484,-1.570285 c -1.187075,-0.982734 -2.417061,-1.434135 -3.589782,-1.48435 z"/>
 <path style="fill:#fbbc04" d="m 53.737855,11.004665 c -1.172828,0.0502 -2.402706,0.501616 -3.589782,1.48435 L 47.999672,14.0593 v 15.019271 l 9.445149,-7.03894 c 5.369872,-3.962794 1.375283,-11.252493 -3.706966,-11.034966 z"/>
 <path style="opacity:0.2;fill:#f4f4f7" d="M 10.261719 11.003906 C 6.7274051 10.85257 3.7416913 14.332285 4.0449219 17.798828 C 4.3230349 14.695422 7.0687092 11.869137 10.261719 12.005859 C 11.43444 12.056074 12.664487 12.5075 13.851562 13.490234 L 16 15.060547 L 32 26.742188 L 48 15.060547 L 50.148438 13.490234 C 51.335513 12.5075 52.565453 12.056059 53.738281 12.005859 C 56.931579 11.869182 59.677075 14.695439 59.955078 17.798828 C 60.25842 14.332302 57.272914 10.852619 53.738281 11.003906 C 52.565453 11.054106 51.335514 11.505547 50.148438 12.488281 L 48 14.058594 L 32 25.742188 L 16 14.058594 L 13.851562 12.488281 C 12.664487 11.505547 11.43444 11.054121 10.261719 11.003906 z"/>
</svg>

<svg xmlns="http://www.w3.org/2000/svg" width="64" height="64"><path style="opacity:.2" d="M4 18.626v31.558C4 52.293 5.613 54 7.602 54H16V30.079l-9.445-7.04c-1.693-1.249-2.444-2.827-2.535-4.398zm56 0-.02.015c-.091 1.571-.842 3.15-2.535 4.399L48 30.079V54h8.398c1.989 0 3.601-1.707 3.601-3.816z"/><path style="fill:#34a853" d="m60 17.626-.02.015c-.091 1.571-.842 3.15-2.535 4.399L48 29.079V53h8.398c1.989 0 3.601-1.707 3.601-3.816z"/><path style="fill:#4285f4" d="m4 17.626.02.015c.09 1.571.842 3.15 2.535 4.399L16 29.079V53H7.602C5.613 53 4 51.293 4 49.184z"/><path style="opacity:.2" d="M10.262 12.005c-5.082-.218-9.077 7.072-3.707 11.035L16 30.079 32 42 48 30.08l9.445-7.04c5.37-3.962 1.375-11.252-3.707-11.034-1.173.05-2.403.501-3.59 1.484L48 15.059 32 26.743 16 15.059l-2.148-1.57c-1.187-.983-2.417-1.434-3.59-1.484z"/><path style="fill:#ea4335" d="M16 14.06v15.019L32 41 48 29.08v-15.02L32 25.743z"/><path style="fill:#c5221f" d="M10.262 11.005c-5.082-.218-9.077 7.072-3.707 11.035L16 29.079v-15.02l-2.148-1.57c-1.187-.983-2.417-1.434-3.59-1.484z"/><path style="fill:#fbbc04" d="M53.738 11.005c-1.173.05-2.403.501-3.59 1.484L48 14.059v15.02l9.445-7.04c5.37-3.962 1.375-11.252-3.707-11.034z"/><path style="opacity:.2;fill:#f4f4f7" d="M10.262 11.004c-3.535-.151-6.52 3.328-6.217 6.795.278-3.104 3.024-5.93 6.217-5.793 1.172.05 2.402.502 3.59 1.484L16 15.06l16 11.682 16-11.681 2.148-1.57c1.188-.983 2.417-1.435 3.59-1.485 3.194-.137 5.94 2.69 6.217 5.793.303-3.467-2.682-6.946-6.217-6.795-1.173.05-2.402.502-3.59 1.484L48 14.058 32 25.743 16 14.06l-2.148-1.57c-1.188-.983-2.418-1.435-3.59-1.485z"/></svg>
